src/cmd/lc_dbnewtable.svg

<svg viewBox="0 0 24 24" xmlns="http://www.w3.org/2000/svg"><path d="m4 4v1 3 12h1 9v-1h-4v-2h4v-1h-4v-2h4 1 4 1v-6-3-1zm1 4h4v2h-4zm5 0h4v2h-4zm5 0h4v2h-4zm-10 3h4v2h-4zm5 0h4v2h-4zm5 0h4v2h-4zm-10 3h4v2h-1-3zm0 3h3 1v1.099609.900391h-4z" fill="#232629"/><path d="m17 15v2h-2v1h2v2h1v-2h2v-1h-2v-2z" fill="#762572"/></svg>

<?xml version="1.0" encoding="UTF-8" standalone="no"?>
<svg
   xmlns:dc="http://purl.org/dc/elements/1.1/"
   xmlns:cc="http://creativecommons.org/ns#"
   xmlns:rdf="http://www.w3.org/1999/02/22-rdf-syntax-ns#"
   xmlns:svg="http://www.w3.org/2000/svg"
   xmlns="http://www.w3.org/2000/svg"
   xmlns:sodipodi="http://sodipodi.sourceforge.net/DTD/sodipodi-0.dtd"
   xmlns:inkscape="http://www.inkscape.org/namespaces/inkscape"
   viewBox="0 0 24 24"
   version="1.1"
   id="svg6"
   sodipodi:docname="lc_dbnewtable.svg"
   inkscape:version="0.92.4 (5da689c313, 2019-01-14)">
  <metadata
     id="metadata12">
    <rdf:RDF>
      <cc:Work
         rdf:about="">
        <dc:format>image/svg+xml</dc:format>
        <dc:type
           rdf:resource="http://purl.org/dc/dcmitype/StillImage" />
      </cc:Work>
    </rdf:RDF>
  </metadata>
  <defs
     id="defs10" />
  <sodipodi:namedview
     pagecolor="#ffffff"
     bordercolor="#666666"
     borderopacity="1"
     objecttolerance="10"
     gridtolerance="10"
     guidetolerance="10"
     inkscape:pageopacity="0"
     inkscape:pageshadow="2"
     inkscape:window-width="1920"
     inkscape:window-height="1011"
     id="namedview8"
     showgrid="true"
     inkscape:zoom="27.812867"
     inkscape:cx="4.0095608"
     inkscape:cy="8.6046302"
     inkscape:window-x="1920"
     inkscape:window-y="32"
     inkscape:window-maximized="1"
     inkscape:current-layer="svg6">
    <inkscape:grid
       type="xygrid"
       id="grid822" />
  </sodipodi:namedview>
  <path
     d="M 7,4 C 5,4 4,4 4,6 v 2 10 c 0,2 1,2 3,2 h 7 v -1 h -4 v -2 h 4 v -1 h -4 v -2 h 4 1 4 1 V 8 6 C 20,4 19,4 17,4 Z M 5,8 h 4 v 2 H 5 Z m 5,0 h 4 v 2 h -4 z m 5,0 h 4 v 2 H 15 Z M 5,11 h 4 v 2 H 5 Z m 5,0 h 4 v 2 h -4 z m 5,0 h 4 v 2 H 15 Z M 5,14 h 4 v 2 H 8 5 Z m 0,3 H 8 9 V 18.099609 19 H 7 C 6,19 5,19 5,18 Z"
     id="path2"
     inkscape:connector-curvature="0"
     style="fill:#232629"
     sodipodi:nodetypes="ccccccccccccccccccccccccccccccccccccccccccccccccccccccccccccccccc" />
  <path
     d="m17 15v2h-2v1h2v2h1v-2h2v-1h-2v-2z"
     fill="#762572"
     id="path4" />
</svg>
